icons/line-line.svg

<svg xmlns="http://www.w3.org/2000/svg" width="24" height="24" fill="none"><g clip-path="url(#a)"><g><path fill="#121212" d="M22 10.69C22 12.477 21.313 14.09 19.877 15.664C17.777 18.078 13.089 21.027 12.013 21.476C10.939 21.927 11.102 21.189 11.139 20.939L11.276 20.089C11.31 19.827 11.344 19.439 11.244 19.189C11.132 18.912 10.688 18.765 10.363 18.697C5.558 18.059 2 14.7 2 10.69C2 6.21502 6.487 2.57202 12 2.57202C17.512 2.57202 22 6.21502 22 10.69ZM18.4 14.315C19.513 13.095 20 11.954 20 10.69C20 7.42202 16.49 4.57202 12 4.57202C7.51 4.57202 4 7.42202 4 10.69C4 13.595 6.728 16.197 10.626 16.714L10.773 16.74C11.851 16.966 12.657 17.354 13.102 18.448L13.138 18.544C14.944 17.368 17.312 15.564 18.399 14.315H18.4ZM18.138 10.315C18.2716 10.3233 18.3971 10.3822 18.4888 10.4797C18.5805 10.5773 18.6316 10.7061 18.6316 10.84C18.6316 10.9739 18.5805 11.1028 18.4888 11.2003C18.3971 11.2979 18.2716 11.3568 18.138 11.365H16.675V12.303H18.137C18.2078 12.2999 18.2785 12.3112 18.3448 12.3362C18.4112 12.3611 18.4718 12.3993 18.5229 12.4483C18.5741 12.4973 18.6149 12.5562 18.6427 12.6213C18.6706 12.6865 18.6849 12.7566 18.6849 12.8275C18.6849 12.8984 18.6706 12.9685 18.6427 13.0337C18.6149 13.0989 18.5741 13.1578 18.5229 13.2068C18.4718 13.2558 18.4112 13.2939 18.3448 13.3189C18.2785 13.3438 18.2078 13.3551 18.137 13.352H16.15C16.0115 13.351 15.8791 13.2954 15.7813 13.1973C15.6836 13.0992 15.6285 12.9665 15.628 12.828V8.85202C15.628 8.56502 15.863 8.32702 16.153 8.32702H18.141C18.2802 8.32742 18.4136 8.38311 18.5118 8.48185C18.61 8.58059 18.6649 8.71428 18.6645 8.85352C18.6641 8.99276 18.6084 9.12614 18.5097 9.22431C18.4109 9.32249 18.2772 9.37742 18.138 9.37702H16.676V10.315H18.138ZM14.925 12.828C14.9247 12.8968 14.9109 12.9649 14.8843 13.0284C14.8578 13.0919 14.819 13.1495 14.7701 13.198C14.7213 13.2464 14.6634 13.2848 14.5997 13.3109C14.536 13.337 14.4678 13.3503 14.399 13.35C14.3167 13.3518 14.2351 13.3339 14.1612 13.2977C14.0872 13.2615 14.0231 13.2081 13.974 13.142L11.938 10.378V12.828C11.928 12.96 11.8685 13.0834 11.7714 13.1734C11.6744 13.2634 11.5469 13.3134 11.4145 13.3134C11.2821 13.3134 11.1546 13.2634 11.0576 13.1734C10.9605 13.0834 10.901 12.96 10.891 12.828V8.85202C10.8907 8.71375 10.9453 8.58102 11.0428 8.48297C11.1403 8.38492 11.2727 8.32955 11.411 8.32902C11.573 8.32902 11.723 8.41502 11.823 8.54002L13.875 11.315V8.85202C13.875 8.56502 14.11 8.32702 14.4 8.32702C14.687 8.32702 14.925 8.56502 14.925 8.85202V12.828ZM10.141 12.828C10.1402 12.9671 10.0845 13.1002 9.98594 13.1984C9.88741 13.2965 9.75408 13.3518 9.615 13.352C9.47636 13.3512 9.34364 13.2957 9.2457 13.1976C9.14776 13.0995 9.09253 12.9667 9.092 12.828V8.85202C9.092 8.56502 9.328 8.32702 9.617 8.32702C9.906 8.32702 10.141 8.56502 10.141 8.85202V12.828ZM8.086 13.352H6.097C5.95818 13.3512 5.82525 13.2958 5.72699 13.1977C5.62873 13.0997 5.57305 12.9668 5.572 12.828V8.85202C5.58347 8.72069 5.64375 8.59843 5.74094 8.50937C5.83813 8.4203 5.96517 8.37089 6.097 8.37089C6.22883 8.37089 6.35587 8.4203 6.45306 8.50937C6.55025 8.59843 6.61053 8.72069 6.622 8.85202V12.302H8.086C8.22524 12.302 8.35878 12.3573 8.45723 12.4558C8.55569 12.5542 8.611 12.6878 8.611 12.827C8.611 12.9663 8.55569 13.0998 8.45723 13.1983C8.35878 13.2967 8.22524 13.352 8.086 13.352Z"/></g></g><defs><clipPath id="a"><rect width="24" height="24" fill="white"/></clipPath></defs></svg>

<svg width="24" height="24" fill="none" xmlns="http://www.w3.org/2000/svg"><g clip-path="url(#a)"><path d="M22 10.69c0 1.787-.687 3.4-2.123 4.974-2.1 2.414-6.788 5.363-7.864 5.812-1.074.451-.911-.287-.874-.537l.137-.85c.034-.262.068-.65-.032-.9-.112-.277-.556-.424-.881-.492C5.558 18.059 2 14.7 2 10.69c0-4.475 4.487-8.118 10-8.118 5.512 0 10 3.643 10 8.118Zm-3.6 3.625c1.113-1.22 1.6-2.361 1.6-3.625 0-3.268-3.51-6.118-8-6.118s-8 2.85-8 6.118c0 2.905 2.728 5.507 6.626 6.024l.147.026c1.078.226 1.884.614 2.329 1.708l.036.096c1.806-1.176 4.174-2.98 5.261-4.229h.001Zm-.262-4a.526.526 0 0 1 0 1.05h-1.463v.938h1.462a.524.524 0 1 1 0 1.049H16.15a.526.526 0 0 1-.522-.524V8.852c0-.287.235-.525.525-.525h1.988a.525.525 0 0 1-.003 1.05h-1.462v.938h1.462Zm-3.213 2.513a.525.525 0 0 1-.526.522.515.515 0 0 1-.425-.208l-2.036-2.764v2.45a.525.525 0 0 1-1.047 0V8.852a.522.522 0 0 1 .52-.523c.162 0 .312.086.412.211l2.052 2.775V8.852c0-.287.235-.525.525-.525.287 0 .525.238.525.525v3.976Zm-4.784 0a.527.527 0 0 1-.526.524.526.526 0 0 1-.523-.524V8.852c0-.287.236-.525.525-.525.289 0 .524.238.524.525v3.976Zm-2.055.524H6.097a.528.528 0 0 1-.525-.524V8.852a.527.527 0 0 1 1.05 0v3.45h1.464a.525.525 0 1 1 0 1.05Z" /></g><defs><clipPath id="a"><path fill="#fff" d="M0 0h24v24H0z"/></clipPath></defs></svg>
